fs/brightness_low_28_filled.svg

<svg viewBox="0 0 28 28" fill="none" xmlns="http://www.w3.org/2000/svg" height="1em" width="1em">
  <path d="M14.7491 4.75C14.7491 4.33579 14.4133 4 13.9991 4C13.5849 4 13.2491 4.33579 13.2491 4.75V6.2463C13.2491 6.66051 13.5849 6.9963 13.9991 6.9963C14.4133 6.9963 14.7491 6.66051 14.7491 6.2463V4.75ZM19.9991 14C19.9991 17.3137 17.3128 20 13.9991 20C10.6854 20 7.99909 17.3137 7.99909 14C7.99909 10.6863 10.6854 8 13.9991 8C17.3128 8 19.9991 10.6863 19.9991 14ZM18.4991 14C18.4991 11.5147 16.4844 9.5 13.9991 9.5V18.5C16.4844 18.5 18.4991 16.4853 18.4991 14ZM23.9991 14C23.9991 14.4142 23.6633 14.75 23.2491 14.75H21.7528C21.3386 14.75 21.0028 14.4142 21.0028 14C21.0028 13.5858 21.3386 13.25 21.7528 13.25H23.2491C23.6633 13.25 23.9991 13.5858 23.9991 14ZM14.7491 21.7539C14.7491 21.3397 14.4133 21.0039 13.9991 21.0039C13.5849 21.0039 13.2491 21.3397 13.2491 21.7539V23.2502C13.2491 23.6644 13.5849 24.0002 13.9991 24.0002C14.4133 24.0002 14.7491 23.6644 14.7491 23.2502V21.7539ZM6.99909 14C6.99909 14.4142 6.6633 14.75 6.24909 14.75H4.75C4.33579 14.75 4 14.4142 4 14C4 13.5858 4.33579 13.25 4.75 13.25H6.24909C6.6633 13.25 6.99909 13.5858 6.99909 14ZM7.77942 6.71967C7.48653 6.42678 7.01165 6.42678 6.71876 6.71967C6.42587 7.01256 6.42587 7.48744 6.71876 7.78033L7.71876 8.78033C8.01165 9.07322 8.48653 9.07322 8.77942 8.78033C9.07231 8.48744 9.07231 8.01256 8.77942 7.71967L7.77942 6.71967ZM6.71876 21.2803C7.01165 21.5732 7.48653 21.5732 7.77942 21.2803L8.77942 20.2803C9.07231 19.9874 9.07231 19.5126 8.77942 19.2197C8.48653 18.9268 8.01165 18.9268 7.71876 19.2197L6.71876 20.2197C6.42587 20.5126 6.42587 20.9874 6.71876 21.2803ZM20.2188 6.71967C20.5117 6.42678 20.9865 6.42678 21.2794 6.71967C21.5723 7.01256 21.5723 7.48744 21.2794 7.78033L20.2794 8.78033C19.9865 9.07322 19.5117 9.07322 19.2188 8.78033C18.9259 8.48744 18.9259 8.01256 19.2188 7.71967L20.2188 6.71967ZM21.2794 21.2803C20.9865 21.5732 20.5117 21.5732 20.2188 21.2803L19.2303 20.2918C18.9374 19.999 18.9374 19.5241 19.2303 19.2312C19.5232 18.9383 19.998 18.9383 20.2909 19.2312L21.2794 20.2197C21.5723 20.5126 21.5723 20.9874 21.2794 21.2803Z" fill="#212121"/>
</svg>

<svg viewBox="0 0 28 28" fill="none" xmlns="http://www.w3.org/2000/svg" height="1em" width="1em">
  <path d="M14.75 4.75a.75.75 0 0 0-1.5 0v1.496a.75.75 0 0 0 1.5 0V4.75ZM20 14a6 6 0 1 1-12 0 6 6 0 0 1 12 0Zm-1.5 0A4.5 4.5 0 0 0 14 9.5v9a4.5 4.5 0 0 0 4.5-4.5Zm5.5 0a.75.75 0 0 1-.75.75h-1.497a.75.75 0 0 1 0-1.5h1.496A.75.75 0 0 1 24 14Zm-9.25 7.754a.75.75 0 0 0-1.5 0v1.496a.75.75 0 0 0 1.5 0v-1.496ZM7 14a.75.75 0 0 1-.75.75h-1.5a.75.75 0 0 1 0-1.5h1.5A.75.75 0 0 1 7 14Zm.78-7.28a.75.75 0 0 0-1.061 1.06l1 1a.75.75 0 0 0 1.06-1.06l-1-1ZM6.718 21.28a.75.75 0 0 0 1.06 0l1-1a.75.75 0 1 0-1.06-1.06l-1 1a.75.75 0 0 0 0 1.06Zm13.5-14.56a.75.75 0 1 1 1.06 1.06l-1 1a.75.75 0 1 1-1.06-1.06l1-1Zm1.06 14.56a.75.75 0 0 1-1.06 0l-.989-.988a.75.75 0 1 1 1.06-1.06l.99.988a.75.75 0 0 1 0 1.06Z" fill="#212121"/>
</svg>
